X:1
T:Stillingfleet, SM
T:Stillingfleet, SM
T:Swiss Air
T:Public Domain Courtesy of the Cyber Hymnal™
C:Swiss Air
Z:Public Domain
Z:Courtesy of the Cyber Hymnal™
%%score ( 1 2 ) ( 3 4 )
L:1/8
Q:1/4=130
M:3/2
K:Eb
V:1 treble 
V:2 treble 
V:3 bass 
V:4 bass 
V:1
 [EB]4 | [EG]2 [EB]2 [Ec]4 [DB]4 | [EB]8 [EB]4 | [DA]2 [EG]2 [EF]4 [DF]4 | E8 [EB]4 | %5
 [EG]2 [FB]2 [Fe]4 [Fd]4 | [Gc]2 c2 [DB]4 [EB]4 | [EA]2 [EG]2 [EF]4 [DF]4 | E8 |] %9
V:2
 x4 | x12 | x12 | x12 | E8 x4 | x12 | x2 (FE) x8 | x12 | E8 |] %9
V:3
 [E,G,]4 | [E,B,]2 [E,G,]2 [A,,A,]4 [B,,F,]4 | [E,G,]8 [E,G,]4 | %3
 [B,,F,]2 [C,E,]2 [A,,C]4 (B,2 A,2) | [E,G,]8 [E,G,]4 | [E,B,]2 [D,B,]2 [C,=A,]4 [B,,B,]4 | %6
 [E,B,]2 [F,=A,]2 [B,,B,]4 [E,G,]4 | [C,A,]2 [B,,A,]2 [A,,C]4 (B,2 A,2) | [E,G,]8 |] %9
V:4
 x4 | x12 | x12 | x8 B,,4 | x12 | x12 | x12 | x8 B,,4 | x8 |] %9

